X:1
T:Thou palsied earth
T:John Wall Callcott (1766-1821) Accompaniment added by William Horsley (1774-1858)
T:Words from "Palestine" by Reginald Heber (1783-1826)
T:Thou palsied earth
T:Copyright © 
T:Copyright © 
T:Copyright © 
T:Copyright © 
T:Copyright © 
T:Copyright © 
C:John Wall Callcott (1766-1821)
C:Accompaniment added by William Horsley (1774-1858)
Z:Words from "Palestine" by
Z:Reginald Heber (1783-1826)
Z:Copyright ©
%%score [ 1 2 3 ] { ( 4 6 ) | 5 }
L:1/8
Q:1/4=76
M:4/4
K:Eb
V:1 treble nm="Treble" snm="Tr."
V:2 treble nm="Treble" snm="Tr."
V:3 bass nm="Bass" snm="B."
V:4 treble nm="Piano" snm="Pno."
V:6 treble 
V:5 bass 
V:1
"^Solemnly" z8 | z8 | z4!pp! A4 | A4 G4 | F6 (GA) | G4 z2 e2 | e4 (d3 c) | =B4 z2 B2 | c4 z2 A2 | %9
w: ||with|noon- day|night o'er- *|spread, Thou|sick'- ning _|sun, so|dark, so|
 F4 z2 ^F2 | !fermata!G8 || z2 |"^cresc." z2 G2 (GA) (Bc) |{c} B4 z2 B2 | c2 e2 (fe) (dc) | %15
w: deep, so|red!||Ye hov'- * ring _|_ that|throng the star- * less _|
 (c2 B2)!ff! z4 | =A4 c3 E | D2!pp! d2 c2 B2 | B4 z2 .=A2 | B6 || %20
w: air, _|Why shakes the|earth, why fades the|light? de-|clare!|
[M:3/4]"^With expression"[Q:1/4=54]"^[mf]" z6 | z .=A .c.e .f.c | .d2 z2 z d | %23
w: |with ruth- less scour- ges|torn? all|
 c (=A/B/) c (e/d/) (f/e/) (d/c/) | d2 z2 z2 | z d =AB cA | B2 z2 z2 | C2 E2 G2 | c2 z!pp! e dc | %29
w: bleed- ing _ with the _ twist- * ed _|thorn?|the meek, for- giv- ing|eye,|Rais'd from the|cross in pa- tient|
 =B>=A G2 ||[M:4/4]"^Solemnly, as at first."[Q:1/4=76] (G3 A) | B4 (A3 G) |{B} A4 A4 | A4 G4 | %34
w: a- go- ny?|Be _|dark, thou _|_ thou|noon- day|
 F6 F2 | G2"^ad lib." z E G2 z B | e2"^In time and rather faster." z2"^cresc."[Q:1/4=92] z2 G2 | %37
w: night a-|rise! And hide, oh|hide, the|
 B6 B2 | B3 A A2 z2 | z2"^ad lib." z F =A2 z c | f2 z2 z2!f!"^In time"[Q:1/4=76] =A2 | c6 c2 | %42
w: dread- ful|sa- cri- fice!|And hide, oh|hide, the|dread- ful|
 c3 B B2"^dolce" z2 | z2!pp! B2 A2 G2 | F3 F F2 z2 | z2 c2 B2 A2 | G3 G G2"^[mf]" (AB) | %47
w: sa- cri- fice!|the dread- ful|sa- cri- fice!|the dread- ful|sa- cri- fice! oh _|
 c2 e2 d2 c2 | B3 B B2 G2 | c6 c2 | B6 (AG) | G4 F4 | E6 |] %53
w: hide the dread- ful|sa- cri- fice! Oh|hide the|dread- ful _|sa- cri-|fice.|
V:2
 z8 | z8 | z4!pp! E4 | D4 E4 | E4 D4 | E4 z4 | z8 | z4 z2 G2 | G4 z2 E2 | C4 z2 C2 | !fermata!D8 || %11
w: ||with|noon- day|night o'er-|spread,||so|dark, so|deep, so|red!|
 z2 |"^cresc." z2 E2 (EF) (GA) |{A} G4 z2 G2 | A2 c2 (dc) (BA) | (A2 G2) z4 |!ff! F4 F3 C | %17
w: |Ye hov'- * ring _|_ that|throng the star- * less _|air, _|Why shakes the|
 B,2!pp! F2 E2 D2 | D4 z2 .C2 | D6 ||[M:3/4]"^[mf]" z6 | z .F .=A.c .d.A | .B2 z2 z B | %23
w: earth, why fades the|light? de-|clare!||with ruth- less scour- ges|torn? all|
 =A (F/G/) A (c/B/) (d/B/) (B/A/) | B2 z2 z2 | z6 | z6 | z6 | z2 z!pp! G FE | D>D D2 ||[M:4/4] z4 | %31
w: bleed- ing _ with the _ twist- * ed _|thorn?||||in pa- tient|a- go- ny?||
 z8 | z4 E4 | D4 E4 | E4 D4 | E2 z2 z4 | z4"^cresc." z2 E2 | _D6 D2 | D3 C C2 z2 | z8 | %40
w: |thou|noon- day|night a-|rise!|the|dread- ful|sa- cri- fice!||
 z4 z2!f! F2 | E6 E2 | E3 D D2"^dolce" z2 |!pp! E8- | E2 DC D2 =E2 | F8- | F2 (ED) E2"^[mf]" (FG) | %47
w: the|dread- ful|sa- cri- fice!|hide,|_ _ _ _ O|hide,|_ _ _ _ oh _|
 A8- | A2 GF G2 E2 | z2 E2 (AG) (FE) | D4 E4- | E4 D4 | E6 |] %53
w: hide|_ the _ dread- ful,|the dread- * ful _|sa- *|* cri-|fice!|
V:3
 z4"^Bass solo" (E,3 F,) | G,4 (F,3 E,) |{D,} C,4!pp!"^[tutti]" C,4 | B,,4 B,,4 | B,,4 B,,4 | %5
w: Thou _|pal- sied _|_ with|noon- day|night o'er-|
 E,4 z4 | z8 | z4 z2 G,2 | E,4 z2 C,2 | A,,4 z2 A,,2 | !fermata!G,,8 ||"^cresc." E,2 | E,8- | %13
w: spread,||so|dark, so|deep, so|red!|Ye|hov'-|
 E,2 E,2 E,2 E,2 | E,6 E,2 | E,4 z4 |!ff! F,4 =A,,3 A,, | B,,2!pp! B,,2 E,2 E,2 | F,4 z2 .F,2 | %19
w: * ring ghosts, that|throng the|air,|Why shakes the|earth, why fades the|light? de-|
 B,,6 ||[M:3/4]"^[mf]" B,2 D2 B,2 | F,4 z2 | B,2 D2 B,2 | F,2 F,2 z2 |!pp! B,3 =A, G,2 | ^F,4 F,2 | %26
w: clare!|Are those his|limbs,|His brows all|bleed- ing,|His the pale|form, the|
 G,3 F, E,D, | E,2 z2 z2 | z2 z!pp! C, C,C, | G,,>G,, G,,2 ||[M:4/4] (E,3 F,) | G,4 (F,3 E,) | %32
w: meek, for- giv- ing|eye,|in pa- tient|a- go- ny?|Be _|dark, thou _|
{D,} C,4 C,4 | B,,4 B,,4 | B,,4 B,,4 | E,2 z2 z4 | z4"^cresc." z2 E,2 | G,6 G,2 | A,3 A, A,2 z2 | %39
w: _ thou|noon- day|night a-|rise!|the|dread- ful|sa- cri- fice!|
 z8 | z4 z2!f! F,2 | =A,6 A,2 | B,3 B,, B,,2"^dolce" z2 |!pp! z2 G,2 F,2 E,2 | B,,3 B,, B,,2 z2 | %45
w: |the|dread- ful|sa- cri- fice!|the dread- ful|sa- cri- fice!|
 z2 A,2 G,2 F,2 | C,3 C, C,2 z2 |"^[mf]" z2 C2 B,2 A,2 | E,3 E, E,2 E,2 | A,8- | %50
w: the dread- ful|sa- cri- fice!|the dread- ful|sa- cri- fice! Oh|hide|
 A,2 (G,F,) G,2 (F,E,) | B,,6 B,,2 | E,6 |] %53
w: _ the _ dread- ful _|sa- cri-|fice|
V:4
 z8 | z8 | z4!pp! A4 | A4 G4 | F6 GA | G4 z2 e2 | e4 d3 c | =B4 z2 B2 | c4 z2 A2 | F4 z2 ^F2 | %10
 !fermata!G8 || z2 | z2 [EG]2 ([EG][FA][GB][Ac]) |{A} [GBc] x3 z2 [GB]2 | %14
 [Ac]2 [ce]2 ([df][ce][Bd][Ac]) | [Ac]2 [GB]2 z4 |!ff! [F=A]4 [Fc]3 [CE] | %17
 [B,D]2!pp! [Fd]2 [Ec]2 [DB]2 | [DB]4 z2 .[C=A]2 | [DB]6 ||[M:3/4] z6 | %21
 z .[F=A] .[Ac].[ce] .[df].[Ac] | .[Bd]2 z2 z [Bd] | %23
 ([Ac][F=A]/[GB]/) ([Ac][ce]/[Bd]/) ([df]/[ce]/[Bd]/[Ac]/) |!p! [Bd]2 z2 z2 | z d =AB cA | %26
 B2 z2 z2 | C2 E2 G2 | c2 z [Ge] [Fd][Ec] | [D=B]>[D=A] [DG]2 ||[M:4/4] (G3 A) | B4 (A3 G) | %32
{B} A4 [EA]4 | [DA]4 [GB]4 | F6 F2 | [EG]2 z E G2 z B | e2 z2"^cresc." z2 [EG]2 | [_DB]6 [DB]2 | %38
 [DB]3 [CA] [CA]2 z2 | z2 z"^ad lib." F =A2 z c | f2 z2 z2!f! [F=A]2 | [Ec]6 [Ec]2 | %42
 [Ec]3 [DB] [DB]2 z2 |"^dolce"!pp! z2 B2 A2 G2 | F3 F F2 z2 | z2 c2 B2 A2 | G3 G G2"^[mf]" AB | %47
 c2 e2 d2 c2 | B3 B B2 G2 | c6 c2 | B6 AG | G4 F4 | E6 |] %53
V:5
 z4 E,3 F, | G,4 F,3 E, |{D,} C,4 C,4 | B,,4 B,,4 | B,,4 B,,4 | E,4 z4 | z8 | z4 z2 G,2 | %8
 E,4 z2 C,2 | A,,4 z2 A,,2 | !fermata!G,,8 || E,2 |"^cresc." E,8- | E,4 E,4 | E,6 E,2 | E,4 z4 | %16
 F,4 =A,,3 A,, | B,,2 B,,2 E,2 E,2 | F,4 z2 .F,2 | B,,6 ||[M:3/4]"^[mf]" B,2 D2 B,2 | F,4 z2 | %22
 B,2 D2 B,2 | F,4 z2 | B,3 =A, G,2 | ^F,4 F,2 | G,3 F, E,D, | E,2 z2 z2 | z2 z!pp! C, C,2 | G,,4 || %30
[M:4/4]"^Solemnly." E,3 F, | G,4 F,3 E, |{D,} C,4 C,4 | B,,8 | B,,8 | E,2"^ad lib." z2 z4 | %36
 z4 z2 E,2 | G,6 G,2 | A,4 A,2 z2 | z8 | z8 | =A,6 A,2 | B,3 B,, B,,2 z2 | z2 G,2 F,2 E,2 | %44
 B,,6 z2 | z2 A,2 G,2 F,2 | C,6 z2 | z2 C2 B,2 A,2 | E,6 E,2 | A,8- | A,2 G,F, G,2 F,E, | B,,8 | %52
 E,6 |] %53
V:6
 x8 | x8 | x4 E4 | D4 E4- | E4 D4 | E4 x4 | x8 | x4 x2 G2 | G4 x2 E2 | C4 x2 C2 | D8 || x2 | x8 | %13
 x8 | x8 | x8 | x8 | x8 | x8 | x6 ||[M:3/4] x6 | x6 | x6 | x6 | x6 | x6 | x6 | x6 | x6 | x4 || %30
[M:4/4] x4 | x8 | x8 | x8 | E4 D4 | x8 | x8 | x8 | x8 | x8 | x8 | x8 | x8 | E8- | E2 DC D2 =E2 | %45
 F8- | F2 ED E2 FG | A8- | A2 (GF) G2 E2 | z2 E2 AGFE | D4 E4- | E4 D4 | E6 |] %53

